X: 1553
T: Oy Kemençe Kemençe
C: ?
O: Turkey
F: http://compmusic.upf.edu/node/140
N: segah--turku--sofyan--oy_kemence--ordu
N: makam= segah
N: form= turku
N: usul= sofyan = 4/4
M: 4/4
L: 1/16
K: C _1/4B _1/4e ^f 
Q: 1/4=102
%%MIDI tuningsystem comma53
Bcdc d2cB A2e2 e2d2  | .e2.d2 d2cB .^3/4A2.B2 .B4  | \
w:  ARANAĞME  |   | 
Bcdc d2cB A2e2 e2d2  | 
w:  ARANAĞME  | 
.e2.d2 d2cB .^3/4A2.B2 .B4  | f2fg g2gf e2f2 f2ed  | \
w:   |  Oy  ke *  men çe  *  ke men çe  de    | 
d2d2 gagf .e2.f2 .f2z2  | 
w:  Ne re dey *  din  *  dün  ge ce    | 
f2fg g2gf e2f2 f2ed  | d2d2 gagf .e2.f2 .f2z2  | 
w:  Oy  ke *  men çe  *  ke men çe  de    |  Ne re dey *  din  *  dün  ge ce    | 
fgg2 gagf e2f2 f2ed  | .d2.d2 .e2ed dccB B4  | 
w:  A *  tar  kı *  ra *  rım  se ni  de    |  Eğ len ce sin  *  eğ *  len *  ce    | 
Bcdc d2cB A2e2 e2d2  | .e2.d2 d2cB .^3/4A2.B2 .B4  | \
w:  A *  tar  *  kı ra *  rım  se ni  de    |  Eğ len ce sin  *  eğ len ce    | 
Bcdc d2cB A2e2 e2d2  | 
w:  ARANAĞME  | 
.e2.d2 d2cB .^3/4A2.B2 .B4  | Bcdc d2cB A2e2 e2d2  | \
w:   |  ARANAĞME  | 
.e2.d2 d2cB .^3/4A2.B2 .B4  | 
w:   | 
f2fg g2gf e2f2 f2ed  | d2d2 gagf .e2.f2 .f2z2  | 
w:  Oy  ke *  men çe  *  ke men çe  de    |  Ne re dey *  din  *  dün  ge ce    | 
f2fg g2gf e2f2 f2ed  | d2d2 gagf .e2.f2 .f2z2  | 
w:  Oy  ke *  men çe  *  ke men çe  de    |  Ne re dey *  din  *  dün  ge ce    | 
fgg2 gagf e2f2 f2ed  | .d2.d2 .e2ed dccB B4  | 
w:  A *  tar  kı *  ra *  rım  se ni  de    |  Eğ len ce sin  *  eğ *  len *  ce    | 
Bcdc d2cB A2e2 e2d2  | .e2.d2 d2cB .^3/4A2.B2 .B4  | |


